apps/web/src/images/integrations/logo-microsoft-intune-color.svg

<svg width="600" height="600" fill="none" xmlns="http://www.w3.org/2000/svg"><g clip-path="url(#a)" fill="#1976D2"><path d="M271.429 371.286V357h185.714v28.571l71.428-50-71.428-50v28.572H42.857V99.857H400V157h42.857V78.429c0-11.858-9.571-21.429-21.428-21.429h-400C9.57 57 0 66.571 0 78.429V335.57C0 347.429 9.571 357 21.429 357H200v14.286c0 23.714-19.143 42.857-42.857 42.857h-42.857V457h242.857v-42.857h-42.857c-23.715 0-42.857-19.143-42.857-42.857Z"/><path d="M578.572 185.571H280.715c-8-16.857-25.143-28.571-45-28.571-27.572 0-50 22.429-50 50s22.428 50 50 50c19.857 0 37-11.714 45-28.571h276.428v242.857H428.572v-85.715h-42.857v135.715c0 11.857 9.571 21.428 21.428 21.428h171.429c11.857 0 21.429-9.571 21.429-21.428V207c0-11.857-9.572-21.429-21.429-21.429ZM471.429 514.143v-14.286h42.857v14.286h-42.857Z"/></g><defs><clipPath id="a"><path fill="#fff" transform="translate(0 57)" d="M0 0h600v485.714H0z"/></clipPath></defs></svg>

<svg width="600" height="600" viewBox="0 0 600 600" fill="none" xmlns="http://www.w3.org/2000/svg">
<g clip-path="url(#clip0_8349_411)">
<path d="M271.429 371.286V357H457.143V385.571L528.571 335.571L457.143 285.571V314.143H42.8571V99.8571H400V157H442.857V78.4286C442.857 66.5714 433.286 57 421.429 57H21.4286C9.57143 57 0 66.5714 0 78.4286V335.571C0 347.429 9.57143 357 21.4286 357H200V371.286C200 395 180.857 414.143 157.143 414.143H114.286V457H357.143V414.143H314.286C290.571 414.143 271.429 395 271.429 371.286Z" fill="#1976D2"/>
<path d="M578.572 185.571H280.715C272.715 168.714 255.572 157 235.715 157C208.143 157 185.715 179.429 185.715 207C185.715 234.571 208.143 257 235.715 257C255.572 257 272.715 245.286 280.715 228.429H557.143V471.286H428.572V385.571H385.715V521.286C385.715 533.143 395.286 542.714 407.143 542.714H578.572C590.429 542.714 600.001 533.143 600.001 521.286V207C600.001 195.143 590.429 185.571 578.572 185.571ZM471.429 514.143V499.857H514.286V514.143H471.429Z" fill="#1976D2"/>
</g>
<defs>
<clipPath id="clip0_8349_411">
<rect width="600" height="485.714" fill="white" transform="translate(0 57)"/>
</clipPath>
</defs>
</svg>
